X: 35995
T: Saturday's Child
R: jig
M: 6/8
K: Dmajor
"G"{c}BGc dAG|"A"cAe dcA|"G"BGc dAG|"Bm"BFd cBF|
"G"{c}BGc dAG|"A"cAe "D"def|"G"gBc def|"A"e2d cAE:|
"D"[Fd]df fdA|"D+"^A/c/de fdc|"Bm/D"B/c/de f2g|"D7"[=c2a2] g aba|
"G"aBc [dg]Bc|"A"[cg]Ae "D"[df]cA|"G"GBc def|"A"e2d cBc:|
"G"BGc dBA|"Bm"BFc dBd|"A"cAd ecA|"D" F/G/AB/c/ d/c/d/e/f|
"Em"gbc e/f/ga|"D"fac "Bm"B2f|"G"gBc def|1 "A"e/f/ed cdc:|2 "A" (3e/f/e/dc "D"d3||

